assets/ai/ai-mendeley-square.svg

<svg xmlns="http://www.w3.org/2000/svg" width="100%" height="100%" viewBox="-75.52 -43.52 599.04 599.04"><path d="M 48 32 C 21.5 32 0 53.5 0 80 L 0 432 C 0 458.5 21.5 480 48 480 L 400 480 C 426.5 480 448 458.5 448 432 L 448 80 C 448 53.5 426.5 32 400 32 L 48 32 z M 158.53125 167.13867 C 173.2341 167.29895 187.54139 174.58668 196.57031 187.83008 C 200.83364 194.116 206.18152 199.67159 212.3418 204.20898 C 220.12498 209.958 230.02233 209.79779 237.37109 203.20312 C 242.75416 198.27695 247.99012 192.91653 252.21875 187.00781 C 263.12206 171.80711 281.68298 164.20677 299.92383 168.27539 C 318.78188 172.44683 332.94199 187.22515 335.81055 205.90039 C 336.26746 208.82615 336.27959 211.81901 336.51953 214.76758 C 336.57671 220.74502 335.19393 226.40363 333.67383 232.15234 C 332.24505 237.48977 331.47814 243.0774 331.07812 248.59766 C 330.7009 253.90102 330.57631 259.29662 331.35352 264.53125 C 333.11359 276.46303 340.46243 282.16596 352.54297 281.9375 C 355.64028 281.88031 358.81781 281.91411 361.80078 282.61133 C 375.10421 285.68585 382.21251 295.16104 383.74414 308.06445 C 384.327 312.87592 383.86997 317.63132 382.81836 322.35156 C 379.73258 336.48938 365.61762 345.28936 352.69141 344.84375 C 338.24479 344.32934 326.40488 333.81384 324.11914 319.76758 C 323.07911 313.36728 323.90132 307.19544 326.32422 301.18359 C 327.61587 297.89188 328.83841 294.49798 329.39844 291.02344 C 330.90693 281.8002 327.18056 274.62315 319.74023 269.22852 C 313.47714 264.71394 306.29962 262.49592 298.7793 261.49023 C 288.65321 260.15329 278.67732 260.75983 269.03125 264.38281 C 264.89418 265.92571 261.09913 268.01633 257.8418 271.04492 C 250.07019 278.24525 249.05337 288.54374 253.93359 297.12695 C 265.59131 317.65384 251.9323 342.07747 228.91406 344.2832 C 219.18796 345.22042 210.12529 343.60833 202.19336 337.48242 C 189.90715 327.98482 186.65003 311.33321 194.0332 297.74414 C 199.74782 287.24085 197.78181 275.54924 187.0957 268.39453 C 181.23261 264.45153 174.68244 262.38184 167.7793 261.49023 C 157.09318 260.10704 146.54454 260.88537 136.42969 264.91992 C 132.10951 266.63438 128.12061 268.97638 124.86328 272.35938 C 118.33705 279.11375 117.13744 287.0224 119.86914 295.76562 C 121.12607 299.80018 122.97746 303.66473 123.9375 307.7793 C 127.76611 324.69412 117.04547 341.16366 100.03906 344.30664 C 88.690106 346.42108 79.239024 342.41984 71.490234 334.08789 C 65.329934 327.47039 63.912206 319.25383 64.003906 310.625 C 64.026696 308.01925 64.415746 305.35559 64.941406 302.73828 C 65.821446 298.4412 67.855851 294.73756 71.181641 291.70898 C 76.324681 287.02283 81.845829 283.07988 88.943359 282.07422 C 90.931886 281.8342 92.976624 281.97119 94.988281 281.83398 C 97.308389 281.7196 99.707786 281.74385 101.9707 281.27539 C 110.54237 279.56125 115.42345 274.14253 116.95508 265.04492 C 118.31514 257.05581 117.65122 249.08974 116.30273 241.22656 C 115.35393 235.55754 113.59362 230.04939 112.66797 224.36914 C 109.38781 204.19695 115.57258 186.03569 132.69336 174.80078 C 140.74663 169.51187 149.70954 167.04251 158.53125 167.13867 z M 224.30859 218.40234 C 206.82216 218.3567 192.69599 232.21982 192.65039 249.52344 C 192.59317 265.22729 204.7874 281.05664 224.13672 281.05664 C 243.42885 281.05664 255.55465 265.32017 255.62305 249.67383 C 255.66865 232.46178 241.62377 218.42604 224.30859 218.40234 z"/></svg>

<svg xmlns="http://www.w3.org/2000/svg" width="100%" height="100%" viewBox="-75.52 -43.52 599.04 599.04"><path d="M48 32C21.5 32 0 53.5 0 80v352c0 26.5 21.5 48 48 48h352c26.5 0 48-21.5 48-48V80c0-26.5-21.5-48-48-48H48zm110.531 135.139c14.703.16 29.01 7.448 38.04 20.691a67.3 67.3 0 0015.77 16.379c7.784 5.749 17.681 5.589 25.03-1.006 5.383-4.926 10.62-10.286 14.848-16.195 10.903-15.2 29.464-22.801 47.705-18.733 18.858 4.172 33.018 18.95 35.887 37.625.456 2.926.469 5.919.709 8.868.057 5.977-1.326 11.636-2.846 17.384-1.429 5.338-2.196 10.925-2.596 16.446-.377 5.303-.502 10.699.276 15.933 1.76 11.932 9.108 17.635 21.189 17.406 3.097-.057 6.275-.023 9.258.674 13.303 3.075 20.412 12.55 21.943 25.453.583 4.812.126 9.567-.926 14.288-3.085 14.137-17.2 22.937-30.127 22.492-14.446-.515-26.286-11.03-28.572-25.076-1.04-6.4-.218-12.573 2.205-18.584 1.292-3.292 2.514-6.686 3.074-10.16 1.509-9.224-2.217-16.4-9.658-21.795-6.263-4.515-13.44-6.733-20.96-7.739-10.127-1.337-20.103-.73-29.749 2.893-4.137 1.543-7.932 3.633-11.19 6.662-7.77 7.2-8.788 17.499-3.907 26.082 11.657 20.527-2.002 44.95-25.02 47.156-9.726.937-18.789-.675-26.72-6.8-12.287-9.498-15.544-26.15-8.16-39.739 5.714-10.503 3.748-22.195-6.938-29.35-5.863-3.942-12.414-6.012-19.317-6.904-10.686-1.383-21.234-.605-31.35 3.43-4.32 1.714-8.308 4.056-11.566 7.44-6.526 6.754-7.726 14.662-4.994 23.406 1.257 4.034 3.108 7.899 4.069 12.013 3.828 16.915-6.893 33.385-23.899 36.528-11.349 2.114-20.8-1.887-28.549-10.22-6.16-6.617-7.578-14.833-7.486-23.462.023-2.606.412-5.27.937-7.887.88-4.297 2.915-8 6.24-11.029 5.144-4.686 10.665-8.63 17.762-9.635 1.989-.24 4.034-.103 6.045-.24 2.32-.114 4.72-.09 6.983-.559 8.571-1.714 13.452-7.132 14.984-16.23 1.36-7.99.696-15.955-.652-23.818-.95-5.67-2.71-11.178-3.635-16.858-3.28-20.172 2.905-38.333 20.025-49.568 8.054-5.29 17.017-7.758 25.838-7.662zm65.778 51.263c-17.487-.045-31.613 13.818-31.659 31.121-.057 15.704 12.137 31.534 31.487 31.534 19.292 0 31.418-15.737 31.486-31.383.046-17.212-14-31.248-31.314-31.272z"/></svg>
